X:1
T:I Am the Bread of Life
T:I Am the Bread of Life
%%score [ ( 1 2 ) ( 3 4 ) ( 5 6 ) 7 ]
L:1/8
Q:1/4=100
M:4/2
K:G
V:1 treble nm="Soprano" snm="S."
V:2 treble 
V:3 treble nm="Alto" snm="A."
V:4 treble 
V:5 treble-8 nm="Tenor" snm="T."
V:6 treble-8 
V:7 bass nm="Bass" snm="B."
V:1
 D4 D6 D2 G2 G2 | F8- F2 GG G2 F2 | E8- E3 E E2 F2 | G8- G8 | D4 D6 D2 G2 G2 | F8- F2 GG (G2 F2) | %6
 E8- E2 EE E2 F2 | D8- D8 | z16 | z16 | z16 | z16 | z16 | z16 | z16 | z16 | (e8 d8 | d8 B8 | %18
 e8 d8) | d8- d8 | e2 ee e2 d2 d6 B2 | d6 d2 B6 cd | e6 d2 d6 B2 |[M:2/2] c6 z2 || %24
[K:A][M:4/2] z16 | z16 | z16 | z16 | z16 | z16 | z16 | z16[Q:1/4=90] | z16 | z16 |] %34
V:2
 x16 | x16 | x16 | x16 | x16 | x16 | x16 | x16 | (G3 A) G6 GA c2 B2 | A8- A2 GA B2 A2 | %10
 G8- G3 E G2 AG | G8- G8 | (G3 A) G6 GA c2 B2 | A8- A2 GA (B2 A2) | G8- G2 EE G2 AG | B8- B8 | %16
 x16 | x16 | x16 | x16 | x16 | x16 | x16 |[M:2/2] x8 ||[K:A][M:4/2] (A3 B) A6 AB d2 c2 | %25
 B8- B2 AB c2 B2 | A8- A3 F A2 BA | A8- A8 | (A3 B) A6 AB d2 c2 | B8- B2 AB (c2 B2) | %30
 A8- A2 FF A2 BA | A8- A4 F2 F2 | A8 B6 z2 | A8- A8 |] %34
V:3
 z16 | z16 | z16 | z16 | z16 | z16 | z16 | z16 | D4 D6 D2 G2 G2 | F8- F2 GG G2 F2 | %10
 E8- E3 E E2 F2 | G8- G8 | D4 D6 D2 G2 G2 | F8- F2 GG (G2 F2) | E8- E2 EE E2 F2 | G8- G8 | z16 | %17
 z16 | z16 | z16 | z16 | z16 | z16 |[M:2/2] z8 ||[K:A][M:4/2] E4 E6 E2 A2 A2 | G8- G2 AA A2 G2 | %26
 F8- F3 F F2 G2 | A8- A8 | E4 E6 E2 A2 A2 | G8- G2 AA (A2 G2) | F8- F2 FF F2 G2 | (A8 F4) F2 F2 | %32
 F8 (A4 G2) z2 | E8- E8 |] %34
V:4
 (B,3 C) B,6 B,C E2 D2 | D8- D2 B,B, B,2 D2 | C8- C3 C C2 D2 | B,8- B,8 | (B,3 C) B,6 B,C E2 D2 | %5
 D8- D2 B,B, (B,2 D2) | C8- C2 CC C2 C2 | G,8- G,8 | x16 | x16 | x16 | x16 | x16 | x16 | x16 | %15
 x16 | (G8 F8 | G8 D8 | G8 F8) | G8- G8 | G2 GG G2 G2 F6 E2 | G6 F2 E6 G2 | G6 G2 F6 E2 | %23
[M:2/2] F6 z2 ||[K:A][M:4/2] x16 | x16 | x16 | x16 | x16 | x16 | x16 | x16 | x16 | x16 |] %34
V:5
 (G3 A) G6 GA c2 B2 | A8- A2 GA B2 A2 | G8- G3 E G2 AG | G8- G8 | (G3 A) G6 GA c2 B2 | %5
 A8- A2 GA (B2 A2) | G8- G2 EE G2 AG | B8- B8 | x16 | x16 | x16 | x16 | x16 | x16 | x16 | x16 | %16
 c2 c3 ccB A6 A2 | B4 B3 A G8 | c2 c4 cB A4 AG A2 | B8- B8 | c2 cc c2 B2 A6 G2 | B6 A2 G6 AB | %22
 c6 B2 A6 G2 |[M:2/2] A6 z2 ||[K:A][M:4/2] x16 | x16 | x16 | x16 | x16 | x16 | x16 | x16 | x16 | %33
 x16 |] %34
V:6
 x16 | x16 | x16 | x16 | x16 | x16 | x16 | x16 | (B3 c) B6 Bc e2 d2 | d8- d2 BB B2 d2 | %10
 c8- c3 c c2 d2 | B8- B8 | (B3 c) B6 Bc e2 d2 | d8- d2 BB (B2 d2) | c8- c2 cc c2 c2 | G8- G8 | %16
 x16 | x16 | x16 | x16 | x16 | x16 | x16 |[M:2/2] x8 ||[K:A][M:4/2] (c3 d) c6 cd f2 e2 | %25
 e8- e2 cc c2 e2 | d8- d3 d d2 e2 | c8- c8 | (c3 d) c6 cd f2 e2 | e8- e2 cc (c2 e2) | %30
 d8- d2 dd d2 d2 | (c8 d4) A2 A2 | d8 e6 z2 | c8- c8 |] %34
V:7
 x16 | x16 | x16 | x16 | x16 | x16 | x16 | x16 | G,,4 G,,6 G,,2 G,,2 G,,2 | %9
 D,8- D,2 G,,G,, G,,2 B,,2 | C,8- C,3 A,, A,,2 A,,2 | G,,8- G,,8 | G,,4 G,,6 G,,2 G,,2 G,,2 | %13
 D,8- D,2 G,,G,, (G,,2 B,,2) | C,8- C,2 C,C, C,2 D,2 | G,,8- G,,8 | (C,8 D,8 | G,,8 G,,8 | %18
 C,8 D,8) | G,,8- G,,8 | C,2 C,C, C,2 C,2 D,6 D,2 | G,,6 D,2 E,6 D,2 | C,6 G,,2 D,6 D,2 | %23
[M:2/2] D,6 z2 ||[K:A][M:4/2] A,,4 A,,6 A,,2 A,,2 A,,2 | E,8- E,2 A,,A,, A,,2 C,2 | %26
 D,8- D,3 B,, B,,2 B,,2 | A,,8- A,,8 | A,,4 A,,6 A,,2 A,,2 A,,2 | E,8- E,2 A,,A,, (A,,2 C,2) | %30
 D,8- D,2 D,D, D,2 E,2 | (F,6 E,2 D,4) D,2 C,2 | B,,8 E,6 z2 | A,,8- A,,8 |] %34

